status/symbolic/software-update-urgent-symbolic.svg

<?xml version="1.0" encoding="UTF-8" standalone="no"?>
<svg
   version="1.1"
   width="16"
   height="16"
   id="svg7357"
   sodipodi:docname="software-update-urgent-symbolic.svg"
   inkscape:version="1.1.2 (0a00cf5339, 2022-02-04)"
   xmlns:inkscape="http://www.inkscape.org/namespaces/inkscape"
   xmlns:sodipodi="http://sodipodi.sourceforge.net/DTD/sodipodi-0.dtd"
   xmlns="http://www.w3.org/2000/svg"
   xmlns:svg="http://www.w3.org/2000/svg"
   xmlns:rdf="http://www.w3.org/1999/02/22-rdf-syntax-ns#"
   xmlns:cc="http://creativecommons.org/ns#"
   xmlns:dc="http://purl.org/dc/elements/1.1/">
  <sodipodi:namedview
     id="namedview16"
     pagecolor="#ffffff"
     bordercolor="#666666"
     borderopacity="1.0"
     inkscape:pageshadow="2"
     inkscape:pageopacity="0.0"
     inkscape:pagecheckerboard="0"
     showgrid="false"
     inkscape:zoom="54.5625"
     inkscape:cx="7.9908362"
     inkscape:cy="8"
     inkscape:window-width="2560"
     inkscape:window-height="1379"
     inkscape:window-x="0"
     inkscape:window-y="30"
     inkscape:window-maximized="1"
     inkscape:current-layer="svg7357" />
  <defs
     id="defs7359" />
  <metadata
     id="metadata7362">
    <rdf:RDF>
      <cc:Work
         rdf:about="">
        <dc:format>image/svg+xml</dc:format>
        <dc:type
           rdf:resource="http://purl.org/dc/dcmitype/StillImage" />
      </cc:Work>
    </rdf:RDF>
  </metadata>
  <path
     class="error"
     id="path833"
     style="font-variation-settings:normal;opacity:1;vector-effect:none;fill:#c6262e;fill-opacity:1;stroke:none;stroke-width:1;stroke-linecap:butt;stroke-linejoin:miter;stroke-miterlimit:4;stroke-dasharray:none;stroke-dashoffset:0;stroke-opacity:1;marker:none;paint-order:normal;stop-color:#000000;stop-opacity:1"
     d="M 7.9785156,15.998678 A 0.48377914,-0.48375988 0 0 1 7.6152344,15.807272 l -1.84375,-2.429688 -3.0195313,0.414063 A 0.48377914,-0.48375988 0 0 1 2.2050781,13.246725 L 2.6210938,10.225241 0.19140625,8.3834438 a 0.48377914,-0.48375988 0 0 1 0,-0.7714844 L 2.6210938,5.7701622 2.2050781,2.7506312 a 0.48377914,-0.48375988 0 0 1 0.546875,-0.546875 l 3.0195313,0.416016 1.84375,-2.42968796 a 0.48377914,-0.48375988 0 0 1 0.7695312,0 l 1.8437504,2.42968796 3.019531,-0.416016 a 0.48377914,-0.48375988 0 0 1 0.546875,0.546875 l -0.416016,3.019531 2.429688,1.8417972 a 0.48377914,-0.48375988 0 0 1 0,0.7714844 l -2.429688,1.8417972 0.416016,3.021484 a 0.48377914,-0.48375988 0 0 1 -0.546875,0.544922 l -3.019531,-0.414063 -1.8437504,2.429688 a 0.48377914,-0.48375988 0 0 1 -0.40625,0.191406 z M 7.40625,11.971334 c 0.031265,0.0029 0.062485,0.0029 0.09375,0 h 1 c 0.2717763,-0.01027 0.489733,-0.228223 0.5,-0.5 V 7.9713344 h 1.5 c 0.369,-0.011 0.606,-0.5235 0.375,-0.8125 L 8.375,4.1588342 C 8.272437,4.0529182 8.1362185,3.9986782 8,3.9986782 c -0.1362185,0 -0.272437,0.054239 -0.375,0.160156 l -2.5,3.0000002 c -0.231,0.289 0.006,0.8015001 0.375,0.8125 H 7 v 3.4999996 c 0.00231,0.240905 0.1709498,0.448287 0.40625,0.5 z" />
</svg>

<svg
        xmlns='http://www.w3.org/2000/svg'
        xmlns:svg='http://www.w3.org/2000/svg'
        id='svg7357'
        width='16'
        height='16'>
  <path
          id='path833'
          opacity='1'
          fill='url(#gpa:error) #ef2929'
          fill-opacity='1'
          fill-rule='nonzero'
          stroke='none'
          stroke-opacity='1'
          stroke-width='1'
          stroke-linecap='butt'
          stroke-linejoin='miter'
          stroke-miterlimit='4'
          stroke-dasharray='none'
          stroke-dashoffset='0'
          marker-start='none'
          marker-mid='none'
          marker-end='none'
          paint-order='normal'
          d='M 7.97852 15.9991 A 0.483779 0.48376 0 0 1 7.61523 15.8077 L 5.77148 13.378 L 2.75195 13.7921 A 0.483779 0.48376 0 0 1 2.20508 13.2472 L 2.62109 10.2257 L 0.191406 8.38388 A 0.483779 0.48376 0 0 1 0.191406 7.61239 L 2.62109 5.7706 L 2.20508 2.75107 A 0.483779 0.48376 0 0 1 2.75195 2.20419 L 5.77148 2.62021 L 7.61523 0.190518 A 0.483779 0.48376 0 0 1 8.38477 0.190518 L 10.2285 2.62021 L 13.248 2.20419 A 0.483779 0.48376 0 0 1 13.7949 2.75107 L 13.3789 5.7706 L 15.8086 7.61239 A 0.483779 0.48376 0 0 1 15.8086 8.38388 L 13.3789 10.2257 L 13.7949 13.2472 A 0.483779 0.48376 0 0 1 13.248 13.7921 L 10.2285 13.378 L 8.38477 15.8077 A 0.483779 0.48376 0 0 1 7.97852 15.9991 Z M 7.40625 11.9718 C 7.43751 11.9747, 7.46874 11.9747, 7.5 11.9718 L 8.5 11.9718 C 8.77178 11.9615, 8.98973 11.7435, 9 11.4718 L 9 7.97177 L 10.5 7.97177 C 10.869 7.96077, 11.106 7.44827, 10.875 7.15927 L 8.375 4.15927 C 8.27244 4.05335, 8.13622 3.99911, 8 3.99911 C 7.86378 3.99911, 7.72756 4.05335, 7.625 4.15927 L 5.125 7.15927 C 4.894 7.44827, 5.131 7.96077, 5.5 7.97177 L 7 7.97177 L 7 11.4718 C 7.00231 11.7127, 7.17095 11.9201, 7.40625 11.9718 Z'
          class="error">
  </path>
</svg>
